icons/icn_ayuda.svg

<svg width="24" xmlns="http://www.w3.org/2000/svg" height="24" id="screenshot-abd3526a-132c-8078-8006-99ccadbdbb2b" viewBox="0 0 24 24" xmlns:xlink="http://www.w3.org/1999/xlink" fill="none" version="1.1"><g id="shape-abd3526a-132c-8078-8006-99ccadbdbb2b"><g class="frame-container-wrapper"><g class="frame-container-blur"><g class="frame-container-shadows"><g fill="none"><g class="fills" id="fills-abd3526a-132c-8078-8006-99ccadbdbb2b"><rect rx="0" ry="0" x="0" y="0" width="24" height="24.000000000000455" transform="matrix(1, 0, 0, 1, 0, 0)" class="frame-background"/></g><g class="frame-children"><g id="shape-abd3526a-132c-8078-8006-99ccadc21126" width="24" height="24" version="1.1" rx="0" ry="0" style="fill: rgb(0, 0, 0);"><g id="shape-abd3526a-132c-8078-8006-99ccadc21129" style="opacity: 1;"><g class="fills" id="fills-abd3526a-132c-8078-8006-99ccadc21129"><ellipse cx="11.90246827257738" cy="19.687342359254558" rx="1.7847016525431627" ry="1.812718397258891" transform="matrix(1, 0, 0, 1, 0, 0)" style="stroke-opacity: 1; stroke: none; stroke-width: 0.459215; stroke-linejoin: round; stroke-dasharray: none; display: inline; stroke-linecap: round; fill: rgb(0, 0, 0); fill-opacity: 1;"/></g></g><g id="shape-abd3526a-132c-8078-8006-99ccadc2112a" style="opacity: 1;"><g class="fills" id="fills-abd3526a-132c-8078-8006-99ccadc2112a"><path d="M10.600118637084961,15.40155029296875C10.629171371459961,15.03118896484375,10.670675277709961,13.63189697265625,10.734151840209961,13.34368896484375C10.837179183959961,12.84869384765625,11.013448715209961,12.39862060546875,11.258077621459961,11.99700927734375C11.508077621459961,11.59454345703125,11.841085433959961,11.16925048828125,12.252462387084961,10.72052001953125C12.573019027709961,10.37969970703125,12.861837387084961,10.05767822265625,13.120870590209961,9.75701904296875C13.377950668334961,9.44757080078125,13.584005355834961,9.12164306640625,13.738302230834961,8.78155517578125C13.892354965209961,8.43304443359375,13.968282699584961,8.03411865234375,13.968282699584961,7.585509777069092C13.968282699584961,7.097960948944092,13.897726058959961,6.684264659881592,13.748067855834961,6.343444347381592C13.601095199584961,6.002868175506592,13.386007308959961,5.744201183319092,13.098897933959961,5.565124034881592C12.820333480834961,5.387511730194092,12.469991683959961,5.299010753631592,12.051778793334961,5.299010753631592C11.703878402709961,5.299010753631592,11.375997543334961,5.376403331756592,11.069845199584961,5.530211925506592C10.761251449584961,5.678405284881592,10.514181137084961,5.909606456756592,10.325460433959961,6.227965831756592C10.139425277709961,6.537414073944092,10.036642074584961,6.947692394256592,10.022481918334961,7.458434581756592L7.500753402709961,7.458434581756592C7.510763168334961,6.482482433319092,7.723653793334961,5.662292003631592,8.127462387084961,4.997008800506592C8.531270980834961,4.331969738006592,9.074972152709961,3.832092046737671,9.760274887084961,3.499206304550171C10.443380355834961,3.166930913925171,11.207052230834961,3.000427007675171,12.051778793334961,3.000427007675171C12.986837387084961,3.000427007675171,13.787618637084961,3.178161382675171,14.447530746459961,3.533630132675171C15.110860824584961,3.882018804550171,15.617696762084961,4.392760753631592,15.964864730834961,5.066833019256592C16.32253074645996,5.731994152069092,16.49855613708496,6.537414073944092,16.49855613708496,7.480895519256592C16.49855613708496,8.16241455078125,16.37624168395996,8.78155517578125,16.13136863708496,9.33795166015625C15.886739730834961,9.88763427734375,15.571065902709961,10.40216064453125,15.179464340209961,10.88201904296875C14.790060043334961,11.35443115234375,14.366476058959961,11.82708740234375,13.914327621459961,12.29937744140625C13.522481918334961,12.69342041015625,13.258321762084961,13.12359619140625,13.118917465209961,13.58721923828125C13.037862777709961,13.83843994140625,12.984395980834961,15.10943603515625,12.949972152709961,15.40020751953125L10.600118637084961,15.40155029296875" style="font-family: roboto; stroke-linejoin: round; font-weight: 500; white-space: pre; display: inline; font-size: 8px; stroke-linecap: round; fill: rgb(0, 0, 0); fill-opacity: 1;"/></g><g id="strokes-ff2223d1-6008-80ec-8007-29cad8f02946-abd3526a-132c-8078-8006-99ccadc2112a" class="strokes" style="font-family: roboto; stroke-linejoin: round; font-weight: 500; white-space: pre; display: inline; font-size: 8px; stroke-linecap: round;"><g class="stroke-shape"><path d="M10.600118637084961,15.40155029296875C10.629171371459961,15.03118896484375,10.670675277709961,13.63189697265625,10.734151840209961,13.34368896484375C10.837179183959961,12.84869384765625,11.013448715209961,12.39862060546875,11.258077621459961,11.99700927734375C11.508077621459961,11.59454345703125,11.841085433959961,11.16925048828125,12.252462387084961,10.72052001953125C12.573019027709961,10.37969970703125,12.861837387084961,10.05767822265625,13.120870590209961,9.75701904296875C13.377950668334961,9.44757080078125,13.584005355834961,9.12164306640625,13.738302230834961,8.78155517578125C13.892354965209961,8.43304443359375,13.968282699584961,8.03411865234375,13.968282699584961,7.585509777069092C13.968282699584961,7.097960948944092,13.897726058959961,6.684264659881592,13.748067855834961,6.343444347381592C13.601095199584961,6.002868175506592,13.386007308959961,5.744201183319092,13.098897933959961,5.565124034881592C12.820333480834961,5.387511730194092,12.469991683959961,5.299010753631592,12.051778793334961,5.299010753631592C11.703878402709961,5.299010753631592,11.375997543334961,5.376403331756592,11.069845199584961,5.530211925506592C10.761251449584961,5.678405284881592,10.514181137084961,5.909606456756592,10.325460433959961,6.227965831756592C10.139425277709961,6.537414073944092,10.036642074584961,6.947692394256592,10.022481918334961,7.458434581756592L7.500753402709961,7.458434581756592C7.510763168334961,6.482482433319092,7.723653793334961,5.662292003631592,8.127462387084961,4.997008800506592C8.531270980834961,4.331969738006592,9.074972152709961,3.832092046737671,9.760274887084961,3.499206304550171C10.443380355834961,3.166930913925171,11.207052230834961,3.000427007675171,12.051778793334961,3.000427007675171C12.986837387084961,3.000427007675171,13.787618637084961,3.178161382675171,14.447530746459961,3.533630132675171C15.110860824584961,3.882018804550171,15.617696762084961,4.392760753631592,15.964864730834961,5.066833019256592C16.32253074645996,5.731994152069092,16.49855613708496,6.537414073944092,16.49855613708496,7.480895519256592C16.49855613708496,8.16241455078125,16.37624168395996,8.78155517578125,16.13136863708496,9.33795166015625C15.886739730834961,9.88763427734375,15.571065902709961,10.40216064453125,15.179464340209961,10.88201904296875C14.790060043334961,11.35443115234375,14.366476058959961,11.82708740234375,13.914327621459961,12.29937744140625C13.522481918334961,12.69342041015625,13.258321762084961,13.12359619140625,13.118917465209961,13.58721923828125C13.037862777709961,13.83843994140625,12.984395980834961,15.10943603515625,12.949972152709961,15.40020751953125L10.600118637084961,15.40155029296875" style="fill: none; stroke-width: 0; stroke: rgb(0, 0, 0); stroke-opacity: 1;"/></g></g></g></g></g></g></g></g></g></g></svg>

<svg fill="none" viewBox="0 0 24 24"><g class="frame-container-wrapper"><g class="frame-container-blur"><g class="frame-container-shadows"><g class="fills"><rect width="24" height="24" class="frame-background" rx="0" ry="0"/></g><g fill="#000" class="frame-children"><ellipse cx="11.9025" cy="19.6873" class="fills" rx="1.7847" ry="1.8127"/><path d="M10.6001 15.4016c.029-.3704.0706-1.7697.134-2.058.103-.495.2793-.945.524-1.3466.25-.4025.583-.8277.9944-1.2765.3205-.3408.6093-.6628.8684-.9635.257-.3094.4631-.6354.6174-.9754.154-.3486.23-.7475.23-1.196 0-.4876-.0706-.9013-.2202-1.2422-.147-.3405-.362-.5992-.6492-.7783-.2786-.1776-.629-.266-1.0471-.266-.348 0-.6758.0773-.982.2311-.3085.1482-.5556.3794-.7443.6978-.186.3094-.2889.7197-.303 1.2304H7.5008c.01-.976.2229-1.7961.6267-2.4614.4038-.665.9475-1.165 1.6328-1.4978.683-.3323 1.4468-.4988 2.2915-.4988.935 0 1.7358.1778 2.3957.5332.6634.3484 1.1702.8592 1.5174 1.5332.3576.6652.5337 1.4706.5337 2.4141 0 .6815-.1224 1.3007-.3672 1.857a6.8105 6.8105 0 0 1-.952 1.5441c-.3893.4724-.813.945-1.265 1.4174-.392.394-.656.8242-.7955 1.2878-.081.2512-.1345 1.5222-.169 1.813l-2.3498.0014" class="fills" font-family="roboto" font-size="8" font-weight="500" style="white-space:pre"/><g stroke-linecap="round" stroke-linejoin="round" class="strokes" font-family="roboto" font-size="8" font-weight="500" style="white-space:pre"><path fill="none" d="M10.6001 15.4016c.029-.3704.0706-1.7697.134-2.058.103-.495.2793-.945.524-1.3466.25-.4025.583-.8277.9944-1.2765.3205-.3408.6093-.6628.8684-.9635.257-.3094.4631-.6354.6174-.9754.154-.3486.23-.7475.23-1.196 0-.4876-.0706-.9013-.2202-1.2422-.147-.3405-.362-.5992-.6492-.7783-.2786-.1776-.629-.266-1.0471-.266-.348 0-.6758.0773-.982.2311-.3085.1482-.5556.3794-.7443.6978-.186.3094-.2889.7197-.303 1.2304H7.5008c.01-.976.2229-1.7961.6267-2.4614.4038-.665.9475-1.165 1.6328-1.4978.683-.3323 1.4468-.4988 2.2915-.4988.935 0 1.7358.1778 2.3957.5332.6634.3484 1.1702.8592 1.5174 1.5332.3576.6652.5337 1.4706.5337 2.4141 0 .6815-.1224 1.3007-.3672 1.857a6.8105 6.8105 0 0 1-.952 1.5441c-.3893.4724-.813.945-1.265 1.4174-.392.394-.656.8242-.7955 1.2878-.081.2512-.1345 1.5222-.169 1.813l-2.3498.0014" class="stroke-shape"/></g></g></g></g></g></svg>
